X: 1
T: Willow on the Lake [simplified version]
O: trad. arranged Andy Reiner / Rustic Roots
R: irregular
S: https://www.patreon.com/posts/rustic-roots-27198819
Z: 2020 John Chambers <jc:trillian.mit.edu>
M: 3/4
L: 1/8
K: G
"A"|: ABc |\
"G"d4 d2B2- | BB"D"cB A2"G"G2- |\
[1,2 "G"GABG DDEG | B4- B :|\
[2,4 "G"GABG DDEF | G4- G :|
"^B"|: DEG |\
"D"A3B A2G2 | "C"EEGE D2B,2- |\
[1,2 "G"B,DED G2A2 | B3c B :|\
[2,4 "G"B,DED B2A2 | G3G G :|
